assets/JohnHancocklogo.svg

<?xml version="1.0" encoding="UTF-8"?>
<svg width="159px" height="52px" viewBox="0 0 159 52" version="1.1" xmlns="http://www.w3.org/2000/svg" xmlns:xlink="http://www.w3.org/1999/xlink">
    <!-- Generator: Sketch 57.1 (83088) - https://sketch.com -->
    <title>JohnHancock_rgb</title>
    <desc>Created with Sketch.</desc>
    <g id="Page-1" stroke="none" stroke-width="1" fill="none" fill-rule="evenodd">
        <g id="JohnHancock_rgb" fill="#0000C1" fill-rule="nonzero">
            <path d="M149.32,23.9999786 C150.634421,23.9944888 151.704439,25.0555655 151.709979,26.3699862 C151.715477,27.6844068 150.654406,28.7544314 149.339986,28.7599795 C148.025565,28.7654847 146.955534,27.7044206 146.949979,26.39 C146.947342,25.7587831 147.195546,25.152364 147.640009,24.7041508 C148.084471,24.2559376 148.688783,24.0026466 149.32,23.9999786 Z M149.32,28.41 C150.13394,28.4344291 150.881424,27.9629381 151.209978,27.2178564 C151.538533,26.4727746 151.382551,25.6028868 150.815583,25.0183843 C150.248616,24.4338819 149.383881,24.2514836 148.62914,24.5571985 C147.8744,24.8629134 147.380367,25.5956936 147.38,26.41 C147.36073,26.9417873 147.560747,27.4581442 147.933224,27.8381838 C148.3057,28.2182235 148.817933,28.4285779 149.35,28.42 L149.32,28.41 Z M148.41,25 L149.48,25 C150.12,25 150.48,25.25 150.48,25.78 C150.500036,25.98186 150.432773,26.1826504 150.295182,26.3317067 C150.157592,26.480763 149.962815,26.563849 149.76,26.56 L150.55,27.79 L150,27.79 L149.21,26.56 L148.83,26.56 L148.83,27.8 L148.38,27.8 L148.41,25 Z M148.87,26.2 L149.41,26.2 C149.75,26.2 149.98,26.13 149.98,25.77 C149.98,25.41 149.69,25.36 149.4,25.36 L148.86,25.36 L148.87,26.2 Z" id="Shape"></path>
            <path d="M91.5,0.56 C87.34,4.12 85.5,7.19 82.5,12.47 C83.5576462,14.210254 84.1658999,16.1862196 84.27,18.22 L85.91,15.68 C88.91,11.07 93.3,5.27 99.39,2.51 C99.39,2.51 99.51,2.6 99.52,2.59 L99.52,2.8 C93.61,6.92 86.35,21.22 84.94,23.53 C89.32,21.87 92.94,18.18 95.14,20.95 L95.64,20.15 L97.79,20.15 L94.36,26.24 C94.11,27 94.41,28.17 95.96,26.35 L96.8,25.35 C98.88,22.64 99.5,21.54 100.62,20.78 C101.25,20.14 103.44,19.59 103.87,20.85 L104.13,21.5 C105.56,20.82 106.92,19.5 108.47,20.5 C108.95,21 109.61,21.42 108.73,23.24 C107.81,24.68 107.98,24.47 107.06,25.97 C106.31,27.13 106.59,29.16 109.84,25.56 C111.84,22.89 113.78,19.01 118.02,20.21 C118.67,20.63 118.93,20.92 118.76,21.56 C118.503917,21.9712561 117.989871,22.1397959 117.54,21.96 C116.95,21.7 117.21,20.39 115.68,21.37 C114.482472,22.6799149 113.506353,24.1761806 112.79,25.8 C112.46,26.65 112.59,27.36 113.47,27.65 C114.566559,27.6250525 115.589615,27.0932112 116.24,26.21 C119.02,24 121.15,19.27 125.43,20.21 C127.56,20.9 126.23,23.44 128.79,21.93 C131.02,20.7 131.86,19.66 134.69,20.28 C135.281925,20.5104784 135.676645,21.0749273 135.69,21.71 C135.639167,22.0478648 135.384167,22.3188024 135.05,22.39 C133.81,22.77 134.65,20.6 132.92,21.39 C131.80432,22.3302974 130.924184,23.5186519 130.35,24.86 C129.1,26.81 129.67,28.95 132.83,26.7 C133.8864,25.9193984 134.843477,25.0126843 135.68,24 C141.79,17.46 142.15,13.39 148.75,7.46 C151.25,4.77 155.09,4.54 152.84,7.89 C152.445129,8.38504848 152.024551,8.85903359 151.58,9.31 C149.970365,10.8915069 148.14573,12.2381009 146.16,13.31 C144.48,15.7 143.46,17.81 141.84,20.43 L141.34,21.43 C142.347332,20.7800197 143.419821,20.2370719 144.54,19.81 C147.89,18.99 147.71,21.73 147.21,22.54 C145.62,24.87 142.79,25.07 140.39,25.54 C143.27,27.42 144.65,29.65 147.04,33.37 C149.387337,33.7231274 151.675259,34.3960456 153.84,35.37 C155.092523,35.9545099 156.270848,36.686347 157.35,37.55 C161.84,42.09 156.52,44.88 150.87,41.08 C148.33,39.15 147.56,37.93 145.24,34.57 C135.419602,33.4306702 125.500398,33.4306702 115.68,34.57 L115.51,34.4 C121.66,32.73 134.79,31.81 144.05,32.95 C142.95,31.1 140.52,26.3 139.05,25.89 C138.36,26.89 137.42,28.73 137.42,28.73 L134.42,28.73 C135.29,27.04 136.66,24.73 137.37,23.18 C136.007444,24.8084459 134.47174,26.2837954 132.79,27.58 C130.03,29.34 128.72,28.76 127.79,27.84 C126.94,26.45 127.73,24.58 128.19,23.03 C127.32,23.18 127.46,23.7 126.42,23.46 C125.54,25.32 125.13,26.4 123.7,27.56 C121.3,29.39 119.36,28.85 118.55,27.63 C118.189835,26.7003308 118.189835,25.6696692 118.55,24.74 C116.64,26.58 114.34,29.67 111.26,28.38 C110.567763,28.0049803 110.140357,27.2772351 110.15,26.49 C110.19051,26.2726993 110.247338,26.0587603 110.32,25.85 C108.04,28.53 105.62,29.47 104.24,28.05 C103.24,26.89 105.36,24.1 105.84,23.17 L106.07,22.77 C106.97,21.42 105.18,21.77 104.89,22.02 C103.79,22.4 102.89,23.97 102.01,25.51 L100.29,28.73 L97.49,28.73 C98.68,26.53 99.9,24.6 101.03,22.43 C101.09,22.16 101.13,21.27 100.12,21.99 C99.7,22.56 99.12,23.28 98.12,24.68 C97.31,25.76 95.06,29.29 92.91,28.8 C91.91,28.46 91.91,28.22 91.73,27.67 C91.67,27.5 91.8,27.17 91.73,27.29 C90.7895888,28.2398662 89.4838824,28.7358888 88.15,28.65 C87.3508736,28.5718686 86.6908221,27.9923113 86.51,27.21 C86.3973189,25.7606008 86.8568015,24.3247177 87.79,23.21 L87.49,23.29 C86.5196754,23.724957 85.5165672,24.0827323 84.49,24.36 C83.61,25.71 82.88,27.31 82.02,28.73 L78.8,28.73 L80.8,24.73 C79.418662,24.7017955 78.05759,24.3921517 76.8,23.82 C75.4525865,26.515446 72.9486964,28.4485965 70,29.07 C67.43,29.55 64.9,28.26 63,27.16 C60.06,29.49 54.41,29.69 57.76,25.16 C58.35,24.23 57.65,25.31 58.45,24.04 C58.6833292,23.7219472 58.8938552,23.387779 59.08,23.04 C60.21,21.52 58.08,20.36 55.73,24.26 C54.73,25.91 54.29,26.47 52.97,28.72 L50.48,28.72 C51.73,26.54 52.98,24.55 54.2,22.37 C54.62,21.69 54.28,20.62 52.91,22.12 L52.68,22.41 C51.88,23.41 50.14,25.8 49.01,27.26 C46.79,29.88 43.68,28.7 45.23,25.9 C45.9,24.63 45.94,24.67 46.23,24.17 C46.52,23.67 46.71,23.28 46.81,23.05 C48.34,20.66 45.16,21.05 42.73,25.75 L41,28.7 L38.4,28.7 C38.4,28.7 41.63,23.17 43.1,20.46 L42.55,20.84 C41.7149904,21.7459999 40.5514253,22.2791504 39.32,22.32 C38.9603568,24.2048898 37.9862574,25.917476 36.55,27.19 C34.24,29.19 32.47,28.58 31.79,28.19 C31.1975534,27.6652514 30.8588776,26.9114245 30.86,26.12 C30.94,24.2 32.04,22.97 33.17,21.44 C32.33,21.69 31.23,21.7 30.22,22.08 C29,24.37 23.81,36.24 20.12,41.61 C12.7,52.01 3.85,53.53 1.12,50.8 C-0.88,48.28 1.36,42.88 6.01,36.8 C10.62,31.17 18.19,25.7 26.92,22.35 C30.4101448,16.1035977 34.7892058,10.3973443 39.92,5.41 C37.23,6.77 32.21,6.62 30.14,4.8 C30.79,8.8 27.52,13.01 23.9,14.3 C27.26,11.8 30.2,8.37 29.34,4.3 C28.83,3.63 28.49,3.72 28.2,2.83 C28.07,1.69 29.12,1.83 29.59,3.2 C30.59,4.67 32.78,5.51 35.31,5.62 C37.951461,5.63191985 40.510904,4.7031469 42.53,3 L42.66,3.29 C37.29,8.29 31.93,18.39 30.72,21.17 C34.51,20.02 37.54,19.33 38.43,20.51 C38.97,20.91 38.87,21.23 39.43,21.51 C40.65,21.93 43.3,19.34 44.93,17.18 C47.87,13.5 49.2,8.82 55.23,5.42 C56.23,4.93 57.76,5.5 56.65,7.35 C55.65,9.04 52.16,11.92 50.27,13.19 C48.73,14.19 47.21,17.93 45.27,20.85 C46.87,20.15 51.06,18.61 49.58,22.39 C49.0364934,23.5403978 48.4219742,24.6558838 47.74,25.73 C46.98,26.62 47.41,27.93 48.9,26 C49.26,25.58 50.51,23.83 51.04,23.17 C52.69,21.12 53.74,19.43 55.94,20.17 C56.51,20.49 56.59,21.31 56.56,21.92 C57.3274412,21.2678354 58.186637,20.7321015 59.11,20.33 C59.8403747,19.9477219 60.6995519,19.8967538 61.47,20.19 C62.61,20.99 61.67,22.62 61.47,22.98 L59.38,26.32 C58.96,27.25 59.26,28.01 60.56,27.62 C61.271022,27.3839381 61.9445373,27.0471804 62.56,26.62 C62.01,26.01 61.48,25.49 61.95,25.31 C62.09,25.38 63.13,26.22 63.13,26.22 C66.047618,24.0108594 68.6957488,21.4667743 71.02,18.64 C70.678421,17.9396127 70.4618315,17.1849337 70.38,16.41 C69.9,14.22 70.98,8.82 76.58,8.84 C76.58,8.84 77.43,6.25 77.46,6.09 C77.8499202,4.83232026 77.8707443,3.48916291 77.52,2.22 C77.41,1.68 77.38,1.22 77.81,1.07 C78.89,1.16 78.5,2.48 78.81,3.15 C79.12,3.82 79.31,4.42 80.02,4.68 C84.71,6.68 88.78,0.97 91.56,0.29 L91.5,0.56 Z M54,7.47 C52.6576086,8.91062872 51.5049289,10.5169871 50.57,12.25 C52.5496731,10.9605319 54.3201961,9.37549228 55.82,7.55 C56.9,6.4 56,5.25 54,7.47 Z M150.9,7 C149.374708,8.4164698 148.085168,10.0672159 147.08,11.89 L148.89,10.64 C149.796011,9.97812245 150.645588,9.24226873 151.43,8.44 C153.93,5.82 151.95,5.87 150.9,7 Z M72.32,11.47 C70.9402743,13.3278557 70.6152487,15.7655474 71.46,17.92 C73.4737517,15.4701436 75.0593745,12.6978395 76.15,9.72 C74.6718098,9.69224212 73.2616802,10.340239 72.32,11.48 L72.32,11.47 Z M77,9.82 C75.8293929,12.9450571 74.1759759,15.8672185 72.1,18.48 L71.89,18.82 C72.4616406,19.9031069 73.2931639,20.8274035 74.31,21.51 C76.24,18.42 77.86,14.92 80.31,11.24 C79.69,10.39 77.68,9.83 77,9.82 Z M82.11,13.38 L77.47,22.68 L77.22,23.14 C78.4567129,23.6477318 79.7665042,23.9549251 81.1,24.05 C83.3610915,20.9450919 83.7483438,16.8540205 82.11,13.38 L82.11,13.38 Z M72.19,20.76 L71.26,19.54 C69.0929145,22.1880249 66.6113008,24.5621804 63.87,26.61 C65.2491259,27.3621964 66.8385369,27.6364753 68.39,27.39 C70.92,26.88 72.63,24.34 73.85,22.31 L72.19,20.76 Z M91.68,21.64 C90.7461938,22.7019304 89.9560873,23.882047 89.33,25.15 C88.62,26.42 88.78,27.25 89.33,27.51 C89.88,27.77 90.33,27.51 91.33,26.51 C92.2632823,25.3063528 93.1024326,24.0325827 93.84,22.7 C95.16,20.15 92.76,20.21 91.68,21.64 L91.68,21.64 Z M125.08,22.21 C125.43,20.21 123.6,20.65 121.31,23.98 C119.7,26.29 120.31,30.08 124.13,25.72 C124.50068,25.1796175 124.83476,24.6150214 125.13,24.03 C126.01,22.34 125.04,22.83 125.06,22.43 L125.08,22.21 Z M142.91,21.37 C141.69,22.01 140.91,22.45 139.45,25.01 C141.45,24.69 143.13,24.24 144.19,22.93 C145.48,21.16 144,20.78 142.9,21.38 L142.91,21.37 Z M26.33,23.37 C16.33,27.67 10.14,33.48 4.44,41.26 C2.22,44.77 0.01,48.92 2.2,50.63 C5.41,52.43 11.39,50.06 18.75,36.98 C21.55,31.98 24.44,27.09 26.32,23.37 L26.33,23.37 Z M148.21,35.21 C148.972369,36.3318096 149.861578,37.3619493 150.86,38.28 C151.54,38.84 152.77,40.09 153.59,40.65 C158.5,44 160.44,39.9 155.65,37.39 C153.336512,36.1835682 150.808742,35.4429045 148.21,35.21 L148.21,35.21 Z M78.45,4.41 C78.2326017,5.97715177 77.8573613,7.51831747 77.33,9.01 C78.5716248,9.14130409 79.7471392,9.63515925 80.71,10.43 C82.0752258,8.51241485 83.5792606,6.69754624 85.21,5 C84.27,5.82 80.1,6.81 78.45,4.41 Z M37.83,22 C38.04,20.48 36.46,20.36 34.3,23.74 C32.14,26.83 33.3,29.62 36.44,26.15 C37.0351536,25.3872365 37.5574417,24.5703245 38,23.71 C38.7,22.08 37.85,22.62 37.87,22.22 L37.83,22 Z M42.45,3.11 C42.6,2.96 42.83,3.17 42.64,3.34 C42.54,3.31 42.4,3.16 42.45,3.12 L42.45,3.11 Z" id="Shape"></path>
        </g>
    </g>
</svg>

<svg xmlns="http://www.w3.org/2000/svg" width="159" height="52" viewBox="0 0 159 52"><g fill="#0000c1"><path d="M149.32 24a2.38 2.38 0 1 1 .02 4.76 2.38 2.38 0 0 1-.02-4.76m0 4.41a2 2 0 1 0-1.94-2 1.94 1.94 0 0 0 1.97 2.01zm-.91-3.41h1.07c.64 0 1 .25 1 .78a.71.71 0 0 1-.72.78l.79 1.23H150l-.79-1.23h-.38v1.24h-.45zm.46 1.2h.54c.34 0 .57-.07.57-.43s-.29-.41-.58-.41h-.54z"/><path d="M91.5.56c-4.16 3.56-6 6.63-9 11.91a12.3 12.3 0 0 1 1.77 5.75l1.64-2.54c3-4.61 7.39-10.41 13.48-13.17 0 0 .12.09.13.08v.21c-5.91 4.12-13.17 18.42-14.58 20.73 4.38-1.66 8-5.35 10.2-2.58l.5-.8h2.15l-3.43 6.09c-.25.76.05 1.93 1.6.11l.84-1c2.08-2.71 2.7-3.81 3.82-4.57.63-.64 2.82-1.19 3.25.07l.26.65c1.43-.68 2.79-2 4.34-1 .48.5 1.14.92.26 2.74-.92 1.44-.75 1.23-1.67 2.73-.75 1.16-.47 3.19 2.78-.41 2-2.67 3.94-6.55 8.18-5.35.65.42.91.71.74 1.35a1 1 0 0 1-1.22.4c-.59-.26-.33-1.57-1.86-.59a16.3 16.3 0 0 0-2.89 4.43c-.33.85-.2 1.56.68 1.85a3.54 3.54 0 0 0 2.77-1.44c2.78-2.21 4.91-6.94 9.19-6 2.13.69.8 3.23 3.36 1.72 2.23-1.23 3.07-2.27 5.9-1.65.592.23.987.795 1 1.43a.82.82 0 0 1-.64.68c-1.24.38-.4-1.79-2.13-1a9.35 9.35 0 0 0-2.57 3.47c-1.25 1.95-.68 4.09 2.48 1.84a16 16 0 0 0 2.85-2.7c6.11-6.54 6.47-10.61 13.07-16.54 2.5-2.69 6.34-2.92 4.09.43a18 18 0 0 1-1.26 1.42 24 24 0 0 1-5.42 4c-1.68 2.39-2.7 4.5-4.32 7.12l-.5 1a17.2 17.2 0 0 1 3.2-1.62c3.35-.82 3.17 1.92 2.67 2.73-1.59 2.33-4.42 2.53-6.82 3 2.88 1.88 4.26 4.11 6.65 7.83a26 26 0 0 1 6.8 2 17.4 17.4 0 0 1 3.51 2.18c4.49 4.54-.83 7.33-6.48 3.53-2.54-1.93-3.31-3.15-5.63-6.51a128.3 128.3 0 0 0-29.56 0l-.17-.17c6.15-1.67 19.28-2.59 28.54-1.45-1.1-1.85-3.53-6.65-5-7.06-.69 1-1.63 2.84-1.63 2.84h-3c.87-1.69 2.24-4 2.95-5.55a29.3 29.3 0 0 1-4.58 4.4c-2.76 1.76-4.07 1.18-5 .26-.85-1.39-.06-3.26.4-4.81-.87.15-.73.67-1.77.43-.88 1.86-1.29 2.94-2.72 4.1-2.4 1.83-4.34 1.29-5.15.07a4 4 0 0 1 0-2.89c-1.91 1.84-4.21 4.93-7.29 3.64a2.12 2.12 0 0 1-1.11-1.89 4.4 4.4 0 0 1 .17-.64c-2.28 2.68-4.7 3.62-6.08 2.2-1-1.16 1.12-3.95 1.6-4.88l.23-.4c.9-1.35-.89-1-1.18-.75-1.1.38-2 1.95-2.88 3.49l-1.72 3.22h-2.8c1.19-2.2 2.41-4.13 3.54-6.3.06-.27.1-1.16-.91-.44-.42.57-1 1.29-2 2.69-.81 1.08-3.06 4.61-5.21 4.12-1-.34-1-.58-1.18-1.13-.06-.17.07-.5 0-.38a4.62 4.62 0 0 1-3.58 1.36 1.87 1.87 0 0 1-1.64-1.44 5.56 5.56 0 0 1 1.28-4l-.3.08a20 20 0 0 1-3 1.07c-.88 1.35-1.61 2.95-2.47 4.37H78.8l2-4a10.2 10.2 0 0 1-4-.91 9.88 9.88 0 0 1-6.8 5.25c-2.57.48-5.1-.81-7-1.91-2.94 2.33-8.59 2.53-5.24-2 .59-.93-.11.15.69-1.12a8 8 0 0 0 .63-1c1.13-1.52-1-2.68-3.35 1.22-1 1.65-1.44 2.21-2.76 4.46h-2.49c1.25-2.18 2.5-4.17 3.72-6.35.42-.68.08-1.75-1.29-.25l-.23.29c-.8 1-2.54 3.39-3.67 4.85-2.22 2.62-5.33 1.44-3.78-1.36.67-1.27.71-1.23 1-1.73s.48-.89.58-1.12c1.53-2.39-1.65-2-4.08 2.7L41 28.7h-2.6s3.23-5.53 4.7-8.24l-.55.38a4.6 4.6 0 0 1-3.23 1.48 8.68 8.68 0 0 1-2.77 4.87c-2.31 2-4.08 1.39-4.76 1a2.76 2.76 0 0 1-.93-2.07c.08-1.92 1.18-3.15 2.31-4.68-.84.25-1.94.26-2.95.64-1.22 2.29-6.41 14.16-10.1 19.53-7.42 10.4-16.27 11.92-19 9.19-2-2.52.24-7.92 4.89-14 4.61-5.63 12.18-11.1 20.91-14.45a73.9 73.9 0 0 1 13-16.94c-2.69 1.36-7.71 1.21-9.78-.61.65 4-2.62 8.21-6.24 9.5 3.36-2.5 6.3-5.93 5.44-10-.51-.67-.85-.58-1.14-1.47-.13-1.14.92-1 1.39.37 1 1.47 3.19 2.31 5.72 2.42A11.12 11.12 0 0 0 42.53 3l.13.29c-5.37 5-10.73 15.1-11.94 17.88 3.79-1.15 6.82-1.84 7.71-.66.54.4.44.72 1 1 1.22.42 3.87-2.17 5.5-4.33 2.94-3.68 4.27-8.36 10.3-11.76 1-.49 2.53.08 1.42 1.93-1 1.69-4.49 4.57-6.38 5.84-1.54 1-3.06 4.74-5 7.66 1.6-.7 5.79-2.24 4.31 1.54a31 31 0 0 1-1.84 3.34c-.76.89-.33 2.2 1.16.27.36-.42 1.61-2.17 2.14-2.83 1.65-2.05 2.7-3.74 4.9-3 .57.32.65 1.14.62 1.75a10.3 10.3 0 0 1 2.55-1.59 2.88 2.88 0 0 1 2.36-.14c1.14.8.2 2.43 0 2.79l-2.09 3.34c-.42.93-.12 1.69 1.18 1.3a7.8 7.8 0 0 0 2-1c-.55-.61-1.08-1.13-.61-1.31.14.07 1.18.91 1.18.91a46.8 46.8 0 0 0 7.89-7.58 6.7 6.7 0 0 1-.64-2.23c-.48-2.19.6-7.59 6.2-7.57 0 0 .85-2.59.88-2.75.39-1.258.41-2.6.06-3.87-.11-.54-.14-1 .29-1.15 1.08.09.69 1.41 1 2.08s.5 1.27 1.21 1.53c4.69 2 8.76-3.71 11.54-4.39zM54 7.47a23 23 0 0 0-3.43 4.78 23.1 23.1 0 0 0 5.25-4.7C56.9 6.4 56 5.25 54 7.47M150.9 7a19.6 19.6 0 0 0-3.82 4.89l1.81-1.25a20.3 20.3 0 0 0 2.54-2.2c2.5-2.62.52-2.57-.53-1.44m-78.58 4.47a6.71 6.71 0 0 0-.86 6.45 28.2 28.2 0 0 0 4.69-8.2 4.85 4.85 0 0 0-3.83 1.76zM77 9.82a32 32 0 0 1-4.9 8.66l-.21.34a7.4 7.4 0 0 0 2.42 2.69c1.93-3.09 3.55-6.59 6-10.27-.62-.85-2.63-1.41-3.31-1.42m5.11 3.56-4.64 9.3-.25.46a12.6 12.6 0 0 0 3.88.91 10.51 10.51 0 0 0 1.01-10.67m-9.92 7.38-.93-1.22a42 42 0 0 1-7.39 7.07 7.1 7.1 0 0 0 4.52.78c2.53-.51 4.24-3.05 5.46-5.08zm19.49.88a16 16 0 0 0-2.35 3.51c-.71 1.27-.55 2.1 0 2.36s1 0 2-1a30 30 0 0 0 2.51-3.81c1.32-2.55-1.08-2.49-2.16-1.06m33.4.57c.35-2-1.48-1.56-3.77 1.77-1.61 2.31-1 6.1 2.82 1.74q.556-.811 1-1.69c.88-1.69-.09-1.2-.07-1.6zm17.83-.84c-1.22.64-2 1.08-3.46 3.64 2-.32 3.68-.77 4.74-2.08 1.29-1.77-.19-2.15-1.29-1.55zm-116.58 2c-10 4.3-16.19 10.11-21.89 17.89-2.22 3.51-4.43 7.66-2.24 9.37 3.21 1.8 9.19-.57 16.55-13.65 2.8-5 5.69-9.89 7.57-13.61zm121.88 11.84a17.6 17.6 0 0 0 2.65 3.07c.68.56 1.91 1.81 2.73 2.37 4.91 3.35 6.85-.75 2.06-3.26a19.9 19.9 0 0 0-7.44-2.18M78.45 4.41a23.5 23.5 0 0 1-1.12 4.6 6.36 6.36 0 0 1 3.38 1.42A48 48 0 0 1 85.21 5c-.94.82-5.11 1.81-6.76-.59M37.83 22c.21-1.52-1.37-1.64-3.53 1.74-2.16 3.09-1 5.88 2.14 2.41A15.5 15.5 0 0 0 38 23.71c.7-1.63-.15-1.09-.13-1.49zm4.62-18.89c.15-.15.38.06.19.23-.1-.03-.24-.18-.19-.22z"/></g></svg>
